X: 169
T: Aşkım Bahardı
C: Yıldırım Gürses
O: Turkey
F: http://compmusic.upf.edu/node/140
N: nihavent--sarki--duyek--askim_bahardi--yildirim_gurses
N: makam= nihavent
N: form= sarki
N: usul= duyek = 8/4
M: 8/4
L: 1/16
K: C _B _e  
Q: 1/4=180
%%MIDI tuningsystem comma53
d2 de d2 e2 c4 ed ed  | c2 cd c2 d2 B4 dc B2  | \
w:  ARANAĞME  |   | 
z2 AB A2 B2 G2 d2 ^c2 d2  | 
w:   | 
z2 AB A2 B2 G4 GA Bc  | d2 de d2 e2 c4 ed ed  | \
w:   |  ARANAĞME  | 
c2 cd c2 d2 B4 dc B2  | 
w:   | 
z2 AB A2 B2 G2 d2 ^c2 d2  | z2 AB A2 B2 G8  | \
w:   |   | 
.G2 .d2 .^c2 .d2 .G.G .d2 .c2 .d2  | 
w:   | 
.G.G2.d .^c2 .d2 .G.G .d2 .c2 .d2  | \
w:   | 
G2 B2 A2 G2 B4 A4  | z2 c2 B2 A2 c4 B4  | 
w:  1- Aş kım  ba har dı   |  ü mit ler  var dı   | 
z2 G2 A2 B2 e4 d4  | d2 c2 B2 A2 G2 BA BA BA  | \
w:  sen  git tin  di ye   |  gön lüm  ka rar dı    | 
G2 B2 A2 G2 B4 A4  | 
w:  1- Aş kım  ba har dı   | 
z2 c2 B2 A2 c4 B4  | z2 G2 A2 B2 e4 d4  | \
w:  ü mit ler  var dı   |  sen  git tin  di ye   | 
d2 c2 B2 A2 G8  | g2 g2 f2 d2 gg g2 f2 d2  | 
w:  gön lüm  ka rar dı    |  SAZ  | 
z2 gg f2 d2 gg gg f2 d2  | g16  | g16  | \
w:   |  Ah   |   | 
.f4 .e4 .f4 (3e2d2e2  | d16  | ef ef ef ef d4 z4  | 
w:  geç ti  o  gün  |  ler   |  SAZ  | 
f2 f6 f8  | .e4 .d4 .e4 (3d2e2d2  | c16  | \
w:  u nu  |  tul du  ye min  |  ler    | 
de de de de c4 z4  | B16  | 
w:  SAZ  |  Bir   | 
A4 B4 d4 (3A2B2A2  | G16  | B4 A2 B2 G4 z4  | \
w:  kı rık  kalp  kal  |  dı    |  SAZ  | 
z2 B2 A2 G2 B4 A4  | z2 c2 B2 A2 c4 B4  | 
w:  Aş kım  ba har dı   |  ü mit ler  var dı   | 
z2 G2 A2 B2 e4 d4  | d2 c2 B2 A2 G2 BA BA BA  | \
w:  sen  git tin  di ye   |  gön lüm  ka rar dı    | 
G2 B2 A2 G2 B4 A4  | 
w:  *  Aş kım  ba har dı   | 
z2 c2 B2 A2 c4 B4  | z2 G2 A2 B2 e4 d4  | \
w:  ü mit ler  var dı   |  sen  git tin  di ye   | 
d2 c2 B2 A2 G8  | d2 de d2 e2 c4 ed ed  | 
w:  gön lüm  ka rar dı    |  ARANAĞME  | 
c2 cd c2 d2 B4 dc B2  | z2 AB A2 B2 G2 d2 ^c2 d2  | \
w:   |   | 
z2 AB A2 B2 G4 GA Bc  | 
w:   | 
d2 de d2 e2 c4 ed ed  | c2 cd c2 d2 B4 dc B2  | \
w:  ARANAĞME  |   | 
z2 AB A2 B2 G2 d2 ^c2 d2  | 
w:   | 
z2 AB A2 B2 G8  | .G2 .d2 .^c2 .d2 .G.G .d2 .c2 .d2  | \
w:   |   | 
.G.G2.d .^c2 .d2 .G.G .d2 .c2 .d2  | 
w:   | 
G2 B2 A2 G2 B4 A4  | z2 c2 B2 A2 c4 B4  | \
w:  1- Aş kım  ba har dı   |  ü mit ler  var dı   | 
z2 G2 A2 B2 e4 d4  | d2 c2 B2 A2 G2 BA BA BA  | 
w:  sen  git tin  di ye   |  gön lüm  ka rar dı    | 
G2 B2 A2 G2 B4 A4  | z2 c2 B2 A2 c4 B4  | \
w:  1- Aş kım  ba har dı   |  ü mit ler  var dı   | 
z2 G2 A2 B2 e4 d4  | d2 c2 B2 A2 G8  | 
w:  sen  git tin  di ye   |  gön lüm  ka rar dı    | 
g2 g2 f2 d2 gg g2 f2 d2  | z2 gg f2 d2 gg gg f2 d2  | g16  | 
w:  SAZ  |   |  Ah   | 
g16  | .f4 .e4 .f4 (3e2d2e2  | d16  | ef ef ef ef d4 z4  | \
w:   |  geç ti  o  gün  |  ler   |  SAZ  | 
f2 f6 f8  | 
w:  u nu  | 
.e4 .d4 .e4 (3d2e2d2  | c16  | de de de de c4 z4  | B16  | \
w:  tul du  ye min  |  ler    |  SAZ  |  Bir   | 
A4 B4 d4 (3A2B2A2  | 
w:  kı rık  kalp  kal  | 
G16  | B4 A2 B2 G4 z4  | z2 B2 A2 G2 B4 A4  | \
w:  dı    |  SAZ  |  Aş kım  ba har dı   | 
z2 c2 B2 A2 c4 B4  | z2 G2 A2 B2 e4 d4  | 
w:  ü mit ler  var dı   |  sen  git tin  di ye   | 
d2 c2 B2 A2 G2 BA BA BA  | G2 B2 A2 G2 B4 A4  | \
w:  gön lüm  ka rar dı    |  *  Aş kım  ba har dı   | 
z2 c2 B2 A2 c4 B4  | 
w:  ü mit ler  var dı   | 
z2 G2 A2 B2 e4 d4  | |


